images/50541474.svg

<?xml version="1.0" encoding="UTF-8"?>
<svg xmlns="http://www.w3.org/2000/svg" xmlns:xlink="http://www.w3.org/1999/xlink" width="300pt" height="300pt" viewBox="0 0 300 300" version="1.1">
<defs>
<g>
<symbol overflow="visible" id="glyph0-0">
<path style="stroke:none;" d="M 0.453125 1.59375 L 0.453125 -6.34375 L 4.953125 -6.34375 L 4.953125 1.59375 Z M 0.953125 1.09375 L 4.453125 1.09375 L 4.453125 -5.84375 L 0.953125 -5.84375 Z M 0.953125 1.09375 "/>
</symbol>
<symbol overflow="visible" id="glyph0-1">
<path style="stroke:none;" d="M 5.796875 -6.0625 L 5.796875 -5.125 C 5.492188 -5.394531 5.171875 -5.597656 4.828125 -5.734375 C 4.492188 -5.878906 4.140625 -5.953125 3.765625 -5.953125 C 3.015625 -5.953125 2.4375 -5.722656 2.03125 -5.265625 C 1.632812 -4.804688 1.4375 -4.144531 1.4375 -3.28125 C 1.4375 -2.414062 1.632812 -1.753906 2.03125 -1.296875 C 2.4375 -0.835938 3.015625 -0.609375 3.765625 -0.609375 C 4.140625 -0.609375 4.492188 -0.675781 4.828125 -0.8125 C 5.171875 -0.945312 5.492188 -1.15625 5.796875 -1.4375 L 5.796875 -0.5 C 5.484375 -0.289062 5.15625 -0.132812 4.8125 -0.03125 C 4.46875 0.0703125 4.097656 0.125 3.703125 0.125 C 2.710938 0.125 1.929688 -0.175781 1.359375 -0.78125 C 0.785156 -1.394531 0.5 -2.226562 0.5 -3.28125 C 0.5 -4.332031 0.785156 -5.160156 1.359375 -5.765625 C 1.929688 -6.378906 2.710938 -6.6875 3.703125 -6.6875 C 4.097656 -6.6875 4.46875 -6.632812 4.8125 -6.53125 C 5.164062 -6.425781 5.492188 -6.269531 5.796875 -6.0625 Z M 5.796875 -6.0625 "/>
</symbol>
<symbol overflow="visible" id="glyph0-2">
<path style="stroke:none;" d="M 0.84375 -6.84375 L 1.65625 -6.84375 L 1.65625 0 L 0.84375 0 Z M 0.84375 -6.84375 "/>
</symbol>
<symbol overflow="visible" id="glyph0-3">
<path style="stroke:none;" d="M 0.890625 -6.5625 L 2.078125 -6.5625 L 4.984375 -1.078125 L 4.984375 -6.5625 L 5.84375 -6.5625 L 5.84375 0 L 4.65625 0 L 1.75 -5.484375 L 1.75 0 L 0.890625 0 Z M 0.890625 -6.5625 "/>
</symbol>
<symbol overflow="visible" id="glyph0-4">
<path style="stroke:none;" d="M 0.890625 -6.5625 L 1.765625 -6.5625 L 1.765625 -3.875 L 5 -3.875 L 5 -6.5625 L 5.890625 -6.5625 L 5.890625 0 L 5 0 L 5 -3.125 L 1.765625 -3.125 L 1.765625 0 L 0.890625 0 Z M 0.890625 -6.5625 "/>
</symbol>
<symbol overflow="visible" id="glyph0-5">
<path style="stroke:none;" d="M 3.546875 -5.953125 C 2.898438 -5.953125 2.382812 -5.710938 2 -5.234375 C 1.625 -4.753906 1.4375 -4.101562 1.4375 -3.28125 C 1.4375 -2.445312 1.625 -1.789062 2 -1.3125 C 2.382812 -0.832031 2.898438 -0.59375 3.546875 -0.59375 C 4.191406 -0.59375 4.703125 -0.832031 5.078125 -1.3125 C 5.453125 -1.789062 5.640625 -2.445312 5.640625 -3.28125 C 5.640625 -4.101562 5.453125 -4.753906 5.078125 -5.234375 C 4.703125 -5.710938 4.191406 -5.953125 3.546875 -5.953125 Z M 3.546875 -6.6875 C 4.460938 -6.6875 5.195312 -6.375 5.75 -5.75 C 6.300781 -5.132812 6.578125 -4.3125 6.578125 -3.28125 C 6.578125 -2.238281 6.300781 -1.410156 5.75 -0.796875 C 5.195312 -0.179688 4.460938 0.125 3.546875 0.125 C 2.617188 0.125 1.878906 -0.179688 1.328125 -0.796875 C 0.773438 -1.410156 0.5 -2.238281 0.5 -3.28125 C 0.5 -4.3125 0.773438 -5.132812 1.328125 -5.75 C 1.878906 -6.375 2.617188 -6.6875 3.546875 -6.6875 Z M 3.546875 -6.6875 "/>
</symbol>
</g>
</defs>
<g id="surface22417">
<rect x="0" y="0" width="300" height="300" style="fill:rgb(100%,100%,100%);fill-opacity:1;stroke:none;"/>
<path style="fill:none;stroke-width:1.2;stroke-linecap:butt;stroke-linejoin:miter;stroke:rgb(0%,80%,0%);stroke-opacity:1;stroke-miterlimit:10;" d="M 88.03125 193.285156 L 80.808594 183.65625 "/>
<path style="fill:none;stroke-width:1.2;stroke-linecap:butt;stroke-linejoin:miter;stroke:rgb(0%,0%,0%);stroke-opacity:1;stroke-miterlimit:10;" d="M 80.808594 183.65625 L 73.585938 174.03125 "/>
<path style=" stroke:none;fill-rule:nonzero;fill:rgb(100%,100%,100%);fill-opacity:1;" d="M 83.03125 187.785156 L 93.03125 187.785156 L 93.03125 198.785156 L 83.03125 198.785156 Z M 83.03125 187.785156 "/>
<g style="fill:rgb(0%,80%,0%);fill-opacity:1;">
  <use xlink:href="#glyph0-1" x="83.03125" y="196.448242"/>
  <use xlink:href="#glyph0-2" x="89.544922" y="196.448242"/>
</g>
<path style="fill:none;stroke-width:1.2;stroke-linecap:butt;stroke-linejoin:miter;stroke:rgb(0%,0%,0%);stroke-opacity:1;stroke-miterlimit:10;" d="M 73.585938 174.03125 L 49.691406 176.914062 "/>
<path style="fill:none;stroke-width:1.2;stroke-linecap:butt;stroke-linejoin:miter;stroke:rgb(0%,0%,0%);stroke-opacity:1;stroke-miterlimit:10;" d="M 70.519531 168.695312 L 51.402344 171 "/>
<path style="fill:none;stroke-width:1.2;stroke-linecap:butt;stroke-linejoin:miter;stroke:rgb(0%,0%,0%);stroke-opacity:1;stroke-miterlimit:10;" d="M 83.039062 151.898438 L 73.585938 174.03125 "/>
<path style="fill:none;stroke-width:1.2;stroke-linecap:butt;stroke-linejoin:miter;stroke:rgb(0%,0%,0%);stroke-opacity:1;stroke-miterlimit:10;" d="M 49.691406 176.914062 L 35.25 157.660156 "/>
<path style="fill:none;stroke-width:1.2;stroke-linecap:butt;stroke-linejoin:miter;stroke:rgb(0%,0%,0%);stroke-opacity:1;stroke-miterlimit:10;" d="M 35.25 157.660156 L 44.703125 135.523438 "/>
<path style="fill:none;stroke-width:1.2;stroke-linecap:butt;stroke-linejoin:miter;stroke:rgb(0%,0%,0%);stroke-opacity:1;stroke-miterlimit:10;" d="M 41.402344 157.667969 L 48.964844 139.960938 "/>
<path style="fill:none;stroke-width:1.2;stroke-linecap:butt;stroke-linejoin:miter;stroke:rgb(0%,0%,0%);stroke-opacity:1;stroke-miterlimit:10;" d="M 44.703125 135.523438 L 68.597656 132.644531 "/>
<path style="fill:none;stroke-width:1.2;stroke-linecap:butt;stroke-linejoin:miter;stroke:rgb(0%,0%,0%);stroke-opacity:1;stroke-miterlimit:10;" d="M 68.597656 132.644531 L 73.324219 121.578125 "/>
<path style="fill:none;stroke-width:1.2;stroke-linecap:butt;stroke-linejoin:miter;stroke:rgb(0%,80%,0%);stroke-opacity:1;stroke-miterlimit:10;" d="M 73.324219 121.578125 L 78.050781 110.507812 "/>
<path style="fill:none;stroke-width:1.2;stroke-linecap:butt;stroke-linejoin:miter;stroke:rgb(0%,0%,0%);stroke-opacity:1;stroke-miterlimit:10;" d="M 68.597656 132.644531 L 83.039062 151.898438 "/>
<path style="fill:none;stroke-width:1.2;stroke-linecap:butt;stroke-linejoin:miter;stroke:rgb(0%,0%,0%);stroke-opacity:1;stroke-miterlimit:10;" d="M 65.511719 137.96875 L 77.066406 153.371094 "/>
<path style=" stroke:none;fill-rule:nonzero;fill:rgb(100%,100%,100%);fill-opacity:1;" d="M 73.050781 105.007812 L 83.050781 105.007812 L 83.050781 116.007812 L 73.050781 116.007812 Z M 73.050781 105.007812 "/>
<g style="fill:rgb(0%,80%,0%);fill-opacity:1;">
  <use xlink:href="#glyph0-1" x="73.050781" y="113.670898"/>
  <use xlink:href="#glyph0-2" x="79.564453" y="113.670898"/>
</g>
<path style="fill:none;stroke-width:1.2;stroke-linecap:butt;stroke-linejoin:miter;stroke:rgb(0%,0%,0%);stroke-opacity:1;stroke-miterlimit:10;" d="M 83.039062 151.898438 L 106.9375 149.015625 "/>
<path style="fill:none;stroke-width:1.2;stroke-linecap:butt;stroke-linejoin:miter;stroke:rgb(0%,0%,0%);stroke-opacity:1;stroke-miterlimit:10;" d="M 106.9375 149.015625 L 116.386719 126.882812 "/>
<path style="fill:none;stroke-width:1.2;stroke-linecap:butt;stroke-linejoin:miter;stroke:rgb(0%,0%,0%);stroke-opacity:1;stroke-miterlimit:10;" d="M 113.089844 149.027344 L 120.652344 131.320312 "/>
<path style="fill:none;stroke-width:1.2;stroke-linecap:butt;stroke-linejoin:miter;stroke:rgb(0%,0%,0%);stroke-opacity:1;stroke-miterlimit:10;" d="M 121.378906 168.269531 L 106.9375 149.015625 "/>
<path style="fill:none;stroke-width:1.2;stroke-linecap:butt;stroke-linejoin:miter;stroke:rgb(0%,0%,0%);stroke-opacity:1;stroke-miterlimit:10;" d="M 116.386719 126.882812 L 140.285156 124 "/>
<path style="fill:none;stroke-width:1.2;stroke-linecap:butt;stroke-linejoin:miter;stroke:rgb(0%,0%,0%);stroke-opacity:1;stroke-miterlimit:10;" d="M 140.285156 124 L 154.726562 143.253906 "/>
<path style="fill:none;stroke-width:1.2;stroke-linecap:butt;stroke-linejoin:miter;stroke:rgb(0%,0%,0%);stroke-opacity:1;stroke-miterlimit:10;" d="M 146.257812 122.527344 L 157.8125 137.929688 "/>
<path style="fill:none;stroke-width:1.2;stroke-linecap:butt;stroke-linejoin:miter;stroke:rgb(0%,0%,0%);stroke-opacity:1;stroke-miterlimit:10;" d="M 149.738281 101.867188 L 140.285156 124 "/>
<path style="fill:none;stroke-width:1.2;stroke-linecap:butt;stroke-linejoin:miter;stroke:rgb(0%,0%,0%);stroke-opacity:1;stroke-miterlimit:10;" d="M 154.726562 143.253906 L 166.675781 141.8125 "/>
<path style="fill:none;stroke-width:1.2;stroke-linecap:butt;stroke-linejoin:miter;stroke:rgb(0%,0%,100%);stroke-opacity:1;stroke-miterlimit:10;" d="M 166.675781 141.8125 L 178.621094 140.375 "/>
<path style="fill:none;stroke-width:1.2;stroke-linecap:butt;stroke-linejoin:miter;stroke:rgb(0%,0%,0%);stroke-opacity:1;stroke-miterlimit:10;" d="M 154.726562 143.253906 L 150 154.320312 "/>
<path style="fill:none;stroke-width:1.2;stroke-linecap:butt;stroke-linejoin:miter;stroke:rgb(0%,0%,100%);stroke-opacity:1;stroke-miterlimit:10;" d="M 150 154.320312 L 145.273438 165.386719 "/>
<path style="fill:none;stroke-width:1.2;stroke-linecap:butt;stroke-linejoin:miter;stroke:rgb(0%,0%,100%);stroke-opacity:1;stroke-miterlimit:10;" d="M 178.621094 140.375 L 183.347656 129.304688 "/>
<path style="fill:none;stroke-width:1.2;stroke-linecap:butt;stroke-linejoin:miter;stroke:rgb(0%,0%,0%);stroke-opacity:1;stroke-miterlimit:10;" d="M 183.347656 129.304688 L 188.074219 118.238281 "/>
<path style="fill:none;stroke-width:1.2;stroke-linecap:butt;stroke-linejoin:miter;stroke:rgb(0%,0%,100%);stroke-opacity:1;stroke-miterlimit:10;" d="M 174.359375 135.9375 L 178.140625 127.082031 "/>
<path style="fill:none;stroke-width:1.2;stroke-linecap:butt;stroke-linejoin:miter;stroke:rgb(0%,0%,0%);stroke-opacity:1;stroke-miterlimit:10;" d="M 178.140625 127.082031 L 181.921875 118.226562 "/>
<path style=" stroke:none;fill-rule:nonzero;fill:rgb(100%,100%,100%);fill-opacity:1;" d="M 175.621094 134.875 L 182.621094 134.875 L 182.621094 145.875 L 175.621094 145.875 Z M 175.621094 134.875 "/>
<g style="fill:rgb(0%,0%,100%);fill-opacity:1;">
  <use xlink:href="#glyph0-3" x="175.621094" y="143.538086"/>
</g>
<path style="fill:none;stroke-width:1.2;stroke-linecap:butt;stroke-linejoin:miter;stroke:rgb(0%,0%,0%);stroke-opacity:1;stroke-miterlimit:10;" d="M 188.074219 118.238281 L 180.851562 108.613281 "/>
<path style="fill:none;stroke-width:1.2;stroke-linecap:butt;stroke-linejoin:miter;stroke:rgb(0%,0%,100%);stroke-opacity:1;stroke-miterlimit:10;" d="M 180.851562 108.613281 L 173.632812 98.984375 "/>
<path style="fill:none;stroke-width:1.2;stroke-linecap:butt;stroke-linejoin:miter;stroke:rgb(0%,0%,0%);stroke-opacity:1;stroke-miterlimit:10;" d="M 188.074219 118.238281 L 200.023438 116.796875 "/>
<path style="fill:none;stroke-width:1.2;stroke-linecap:butt;stroke-linejoin:miter;stroke:rgb(0%,0%,100%);stroke-opacity:1;stroke-miterlimit:10;" d="M 200.023438 116.796875 L 211.96875 115.359375 "/>
<path style="fill:none;stroke-width:1.2;stroke-linecap:butt;stroke-linejoin:miter;stroke:rgb(0%,0%,100%);stroke-opacity:1;stroke-miterlimit:10;" d="M 173.632812 98.984375 L 161.683594 100.425781 "/>
<path style="fill:none;stroke-width:1.2;stroke-linecap:butt;stroke-linejoin:miter;stroke:rgb(0%,0%,0%);stroke-opacity:1;stroke-miterlimit:10;" d="M 161.683594 100.425781 L 149.738281 101.867188 "/>
<path style="fill:none;stroke-width:1.2;stroke-linecap:butt;stroke-linejoin:miter;stroke:rgb(0%,0%,100%);stroke-opacity:1;stroke-miterlimit:10;" d="M 171.921875 104.894531 L 162.363281 106.046875 "/>
<path style="fill:none;stroke-width:1.2;stroke-linecap:butt;stroke-linejoin:miter;stroke:rgb(0%,0%,0%);stroke-opacity:1;stroke-miterlimit:10;" d="M 162.363281 106.046875 L 152.804688 107.199219 "/>
<path style=" stroke:none;fill-rule:nonzero;fill:rgb(100%,100%,100%);fill-opacity:1;" d="M 170.632812 93.484375 L 177.632812 93.484375 L 177.632812 104.484375 L 170.632812 104.484375 Z M 170.632812 93.484375 "/>
<g style="fill:rgb(0%,0%,100%);fill-opacity:1;">
  <use xlink:href="#glyph0-3" x="170.632812" y="102.147461"/>
</g>
<path style="fill:none;stroke-width:1.2;stroke-linecap:butt;stroke-linejoin:miter;stroke:rgb(0%,0%,100%);stroke-opacity:1;stroke-miterlimit:10;" d="M 211.96875 115.359375 L 219.191406 124.984375 "/>
<path style="fill:none;stroke-width:1.2;stroke-linecap:butt;stroke-linejoin:miter;stroke:rgb(0%,0%,0%);stroke-opacity:1;stroke-miterlimit:10;" d="M 219.191406 124.984375 L 226.414062 134.613281 "/>
<path style=" stroke:none;fill-rule:nonzero;fill:rgb(100%,100%,100%);fill-opacity:1;" d="M 204.96875 109.859375 L 218.96875 109.859375 L 218.96875 120.859375 L 204.96875 120.859375 Z M 204.96875 109.859375 "/>
<g style="fill:rgb(0%,0%,100%);fill-opacity:1;">
  <use xlink:href="#glyph0-3" x="204.96875" y="118.522461"/>
  <use xlink:href="#glyph0-4" x="211.946289" y="118.522461"/>
</g>
<path style="fill:none;stroke-width:1.2;stroke-linecap:butt;stroke-linejoin:miter;stroke:rgb(0%,0%,0%);stroke-opacity:1;stroke-miterlimit:10;" d="M 226.414062 134.613281 L 216.960938 156.746094 "/>
<path style="fill:none;stroke-width:1.2;stroke-linecap:butt;stroke-linejoin:miter;stroke:rgb(0%,0%,0%);stroke-opacity:1;stroke-miterlimit:10;" d="M 230.675781 139.050781 L 223.113281 156.757812 "/>
<path style="fill:none;stroke-width:1.2;stroke-linecap:butt;stroke-linejoin:miter;stroke:rgb(0%,0%,0%);stroke-opacity:1;stroke-miterlimit:10;" d="M 250.308594 131.730469 L 226.414062 134.613281 "/>
<path style="fill:none;stroke-width:1.2;stroke-linecap:butt;stroke-linejoin:miter;stroke:rgb(0%,0%,0%);stroke-opacity:1;stroke-miterlimit:10;" d="M 216.960938 156.746094 L 231.402344 176 "/>
<path style="fill:none;stroke-width:1.2;stroke-linecap:butt;stroke-linejoin:miter;stroke:rgb(0%,0%,0%);stroke-opacity:1;stroke-miterlimit:10;" d="M 231.402344 176 L 255.296875 173.117188 "/>
<path style="fill:none;stroke-width:1.2;stroke-linecap:butt;stroke-linejoin:miter;stroke:rgb(0%,0%,0%);stroke-opacity:1;stroke-miterlimit:10;" d="M 233.113281 170.089844 L 252.230469 167.785156 "/>
<path style="fill:none;stroke-width:1.2;stroke-linecap:butt;stroke-linejoin:miter;stroke:rgb(0%,0%,0%);stroke-opacity:1;stroke-miterlimit:10;" d="M 231.402344 176 L 221.949219 198.132812 "/>
<path style="fill:none;stroke-width:1.2;stroke-linecap:butt;stroke-linejoin:miter;stroke:rgb(0%,0%,0%);stroke-opacity:1;stroke-miterlimit:10;" d="M 255.296875 173.117188 L 264.75 150.984375 "/>
<path style="fill:none;stroke-width:1.2;stroke-linecap:butt;stroke-linejoin:miter;stroke:rgb(0%,0%,0%);stroke-opacity:1;stroke-miterlimit:10;" d="M 264.75 150.984375 L 250.308594 131.730469 "/>
<path style="fill:none;stroke-width:1.2;stroke-linecap:butt;stroke-linejoin:miter;stroke:rgb(0%,0%,0%);stroke-opacity:1;stroke-miterlimit:10;" d="M 258.777344 152.457031 L 247.222656 137.054688 "/>
<path style="fill:none;stroke-width:1.2;stroke-linecap:butt;stroke-linejoin:miter;stroke:rgb(0%,0%,0%);stroke-opacity:1;stroke-miterlimit:10;" d="M 221.949219 198.132812 L 198.054688 201.015625 "/>
<path style="fill:none;stroke-width:1.2;stroke-linecap:butt;stroke-linejoin:miter;stroke:rgb(0%,0%,100%);stroke-opacity:1;stroke-miterlimit:10;" d="M 145.273438 165.386719 L 152.496094 175.015625 "/>
<path style="fill:none;stroke-width:1.2;stroke-linecap:butt;stroke-linejoin:miter;stroke:rgb(0%,0%,0%);stroke-opacity:1;stroke-miterlimit:10;" d="M 152.496094 175.015625 L 159.714844 184.640625 "/>
<path style="fill:none;stroke-width:1.2;stroke-linecap:butt;stroke-linejoin:miter;stroke:rgb(0%,0%,100%);stroke-opacity:1;stroke-miterlimit:10;" d="M 145.273438 165.386719 L 133.324219 166.828125 "/>
<path style="fill:none;stroke-width:1.2;stroke-linecap:butt;stroke-linejoin:miter;stroke:rgb(0%,0%,0%);stroke-opacity:1;stroke-miterlimit:10;" d="M 133.324219 166.828125 L 121.378906 168.269531 "/>
<path style=" stroke:none;fill-rule:nonzero;fill:rgb(100%,100%,100%);fill-opacity:1;" d="M 142.273438 159.886719 L 149.273438 159.886719 L 149.273438 170.886719 L 142.273438 170.886719 Z M 142.273438 159.886719 "/>
<g style="fill:rgb(0%,0%,100%);fill-opacity:1;">
  <use xlink:href="#glyph0-3" x="142.273438" y="168.549805"/>
</g>
<path style="fill:none;stroke-width:1.2;stroke-linecap:butt;stroke-linejoin:miter;stroke:rgb(0%,0%,0%);stroke-opacity:1;stroke-miterlimit:10;" d="M 118.773438 167.15625 L 114.046875 178.222656 "/>
<path style="fill:none;stroke-width:1.2;stroke-linecap:butt;stroke-linejoin:miter;stroke:rgb(100%,0%,0%);stroke-opacity:1;stroke-miterlimit:10;" d="M 114.046875 178.222656 L 109.320312 189.292969 "/>
<path style="fill:none;stroke-width:1.2;stroke-linecap:butt;stroke-linejoin:miter;stroke:rgb(0%,0%,0%);stroke-opacity:1;stroke-miterlimit:10;" d="M 123.984375 169.382812 L 119.257812 180.449219 "/>
<path style="fill:none;stroke-width:1.2;stroke-linecap:butt;stroke-linejoin:miter;stroke:rgb(100%,0%,0%);stroke-opacity:1;stroke-miterlimit:10;" d="M 119.257812 180.449219 L 114.53125 191.515625 "/>
<path style=" stroke:none;fill-rule:nonzero;fill:rgb(100%,100%,100%);fill-opacity:1;" d="M 103.925781 184.902344 L 111.925781 184.902344 L 111.925781 195.902344 L 103.925781 195.902344 Z M 103.925781 184.902344 "/>
<g style="fill:rgb(100%,0%,0%);fill-opacity:1;">
  <use xlink:href="#glyph0-5" x="103.925781" y="193.56543"/>
</g>
</g>
</svg>

<svg xmlns="http://www.w3.org/2000/svg" xmlns:xlink="http://www.w3.org/1999/xlink" width="300pt" height="300pt" viewBox="0 0 300 300"><defs><symbol overflow="visible"><path d="M.453 1.594v-7.938h4.5v7.938zm.5-.5h3.5v-6.938h-3.5zm0 0"/></symbol><symbol overflow="visible" id="a"><path d="M5.797-6.063v.938c-.305-.27-.625-.473-.97-.61-.335-.144-.686-.218-1.06-.218-.75 0-1.33.23-1.736.687-.397.46-.592 1.12-.592 1.985 0 .866.195 1.526.593 1.983.408.46.986.688 1.736.688.375 0 .726-.066 1.062-.203.344-.132.664-.343.97-.625V-.5c-.314.21-.642.367-.986.47-.343.1-.714.155-1.11.155-.99 0-1.772-.3-2.343-.906C.784-1.396.5-2.228.5-3.28c0-1.052.285-1.88.86-2.486.57-.613 1.35-.92 2.343-.92.395-.002.766.053 1.11.155.35.104.68.26.984.468zm0 0"/></symbol><symbol overflow="visible" id="b"><path d="M.844-6.844h.812V0H.844zm0 0"/></symbol><symbol overflow="visible" id="c"><path d="M.89-6.563H2.08l2.906 5.485v-5.484h.86V0H4.656L1.75-5.484V0H.89zm0 0"/></symbol><symbol overflow="visible" id="d"><path d="M.89-6.563h.876v2.688H5v-2.688h.89V0H5v-3.125H1.766V0H.89zm0 0"/></symbol><symbol overflow="visible" id="e"><path d="M3.547-5.953c-.65 0-1.164.242-1.547.72-.375.48-.563 1.13-.563 1.952 0 .835.188 1.49.563 1.967.383.48.898.72 1.547.72.644 0 1.156-.24 1.53-.72.376-.476.564-1.132.564-1.968 0-.822-.187-1.474-.562-1.954-.375-.477-.887-.72-1.53-.72zm0-.734c.914 0 1.648.312 2.203.937.55.617.828 1.438.828 2.47 0 1.042-.277 1.87-.828 2.483-.555.617-1.29.922-2.203.922-.93 0-1.668-.305-2.22-.922C.774-1.41.5-2.237.5-3.28c0-1.033.273-1.853.828-2.47.55-.625 1.29-.938 2.22-.938zm0 0"/></symbol></defs><g><path fill="#fff" d="M0 0h300v300H0z"/><path d="M88.03 193.285l-7.22-9.63" stroke-width="1.2" stroke="#0c0" stroke-miterlimit="10" fill="none"/><path d="M80.81 183.656l-7.224-9.625" stroke-width="1.2" stroke="#000" stroke-miterlimit="10" fill="none"/><path d="M83.03 187.785h10v11h-10zm0 0" fill="#fff"/><g fill="#0c0"><use xlink:href="#a" x="83.031" y="196.448"/><use xlink:href="#b" x="89.545" y="196.448"/></g><path d="M73.586 174.03l-23.895 2.884M70.52 168.695L51.402 171M83.04 151.898l-9.454 22.133M49.69 176.914L35.25 157.66M35.25 157.66l9.453-22.137M41.402 157.668l7.563-17.707M44.703 135.523l23.895-2.878M68.598 132.645l4.726-11.067" stroke-width="1.2" stroke="#000" stroke-miterlimit="10" fill="none"/><path d="M73.324 121.578l4.727-11.07" stroke-width="1.2" stroke="#0c0" stroke-miterlimit="10" fill="none"/><path d="M68.598 132.645l14.44 19.253M65.512 137.97l11.554 15.4" stroke-width="1.2" stroke="#000" stroke-miterlimit="10" fill="none"/><path d="M73.05 105.008h10v11h-10zm0 0" fill="#fff"/><g fill="#0c0"><use xlink:href="#a" x="73.051" y="113.671"/><use xlink:href="#b" x="79.564" y="113.671"/></g><path d="M83.04 151.898l23.897-2.882M106.938 149.016l9.45-22.133M113.09 149.027l7.562-17.707M121.38 168.27l-14.442-19.254M116.387 126.883L140.285 124M140.285 124l14.442 19.254M146.258 122.527l11.554 15.403M149.738 101.867L140.285 124M154.727 143.254l11.95-1.44" stroke-width="1.2" stroke="#000" stroke-miterlimit="10" fill="none"/><path d="M166.676 141.813l11.945-1.438" stroke-width="1.2" stroke="#00f" stroke-miterlimit="10" fill="none"/><path d="M154.727 143.254L150 154.32" stroke-width="1.2" stroke="#000" stroke-miterlimit="10" fill="none"/><path d="M150 154.32l-4.727 11.067M178.62 140.375l4.728-11.07" stroke-width="1.2" stroke="#00f" stroke-miterlimit="10" fill="none"/><path d="M183.348 129.305l4.726-11.067" stroke-width="1.2" stroke="#000" stroke-miterlimit="10" fill="none"/><path d="M174.36 135.938l3.78-8.856" stroke-width="1.2" stroke="#00f" stroke-miterlimit="10" fill="none"/><path d="M178.14 127.082l3.782-8.855" stroke-width="1.2" stroke="#000" stroke-miterlimit="10" fill="none"/><path d="M175.62 134.875h7v11h-7zm0 0" fill="#fff"/><use xlink:href="#c" x="175.621" y="143.538" fill="#00f"/><path d="M188.074 118.238l-7.222-9.625" stroke-width="1.2" stroke="#000" stroke-miterlimit="10" fill="none"/><path d="M180.852 108.613l-7.22-9.63" stroke-width="1.2" stroke="#00f" stroke-miterlimit="10" fill="none"/><path d="M188.074 118.238l11.95-1.44" stroke-width="1.2" stroke="#000" stroke-miterlimit="10" fill="none"/><path d="M200.023 116.797l11.946-1.438M173.633 98.984l-11.95 1.442" stroke-width="1.2" stroke="#00f" stroke-miterlimit="10" fill="none"/><path d="M161.684 100.426l-11.946 1.44" stroke-width="1.2" stroke="#000" stroke-miterlimit="10" fill="none"/><path d="M171.922 104.895l-9.56 1.152" stroke-width="1.2" stroke="#00f" stroke-miterlimit="10" fill="none"/><path d="M162.363 106.047l-9.558 1.152" stroke-width="1.2" stroke="#000" stroke-miterlimit="10" fill="none"/><path d="M170.633 93.484h7v11h-7zm0 0" fill="#fff"/><use xlink:href="#c" x="170.633" y="102.147" fill="#00f"/><path d="M211.97 115.36l7.22 9.624" stroke-width="1.2" stroke="#00f" stroke-miterlimit="10" fill="none"/><path d="M219.19 124.984l7.224 9.63" stroke-width="1.2" stroke="#000" stroke-miterlimit="10" fill="none"/><path d="M204.97 109.86h14v11h-14zm0 0" fill="#fff"/><g fill="#00f"><use xlink:href="#c" x="204.969" y="118.522"/><use xlink:href="#d" x="211.946" y="118.522"/></g><path d="M226.414 134.613l-9.453 22.133M230.676 139.05l-7.563 17.708M250.31 131.73l-23.896 2.883M216.96 156.746L231.403 176M231.402 176l23.895-2.883M233.113 170.09l19.117-2.305M231.402 176l-9.453 22.133M255.297 173.117l9.453-22.133M264.75 150.984l-14.44-19.254M258.777 152.457l-11.554-15.402M221.95 198.133l-23.895 2.883" stroke-width="1.2" stroke="#000" stroke-miterlimit="10" fill="none"/><path d="M145.273 165.387l7.223 9.63" stroke-width="1.2" stroke="#00f" stroke-miterlimit="10" fill="none"/><path d="M152.496 175.016l7.22 9.625" stroke-width="1.2" stroke="#000" stroke-miterlimit="10" fill="none"/><path d="M145.273 165.387l-11.95 1.44" stroke-width="1.2" stroke="#00f" stroke-miterlimit="10" fill="none"/><path d="M133.324 166.828l-11.945 1.442" stroke-width="1.2" stroke="#000" stroke-miterlimit="10" fill="none"/><path d="M142.273 159.887h7v11h-7zm0 0" fill="#fff"/><use xlink:href="#c" x="142.273" y="168.55" fill="#00f"/><path d="M118.773 167.156l-4.726 11.067" stroke-width="1.2" stroke="#000" stroke-miterlimit="10" fill="none"/><path d="M114.047 178.223l-4.727 11.07" stroke-width="1.2" stroke="#f00" stroke-miterlimit="10" fill="none"/><path d="M123.984 169.383l-4.726 11.066" stroke-width="1.2" stroke="#000" stroke-miterlimit="10" fill="none"/><path d="M119.258 180.45l-4.727 11.066" stroke-width="1.2" stroke="#f00" stroke-miterlimit="10" fill="none"/><path d="M103.926 184.902h8v11h-8zm0 0" fill="#fff"/><use xlink:href="#e" x="103.926" y="193.565" fill="#f00"/></g></svg>
